X:71
T: Am Abend, eh ich schlafen geh (Band 1), S. 205
N: P0846
O: Lothringen
S: PINCK, Louis: Verklingende Weisen, Bd 1, Metz 1928]
R: Liebe, Fenstergang]
M: 3/4
L: 1/16
K: F
C2F2G2 | _A6B2G2A2 | F6
_E2_A2B2 | c6_AAc2A2 | G4z2
G2_A2B2 | c4z2c2_A2c2 | B4z2
B2_A2G2 | F4_A2G2F2E2 | F4z2

